Adwaita++/places/16/folder-private.svg

<svg height="16" width="16" xmlns="http://www.w3.org/2000/svg">
  <path d="m4.5 4c-2.485 0-4.5 2.015-4.5 4.5s2.015 4.5 4.5 4.5c1.905-.003 3.601-1.204 4.236-3h3.264v2h3v-2h1v-3h-7.264c-.634-1.796-2.331-2.997-4.236-3zm0 3c.828 0 1.5.672 1.5 1.5s-.672 1.5-1.5 1.5-1.5-.672-1.5-1.5.672-1.5 1.5-1.5z" fill="#474747"/>
</svg>

<svg xmlns="http://www.w3.org/2000/svg" width="16" height="16" version="1.1">
 <defs>
  <style id="current-color-scheme" type="text/css">
   .ColorScheme-Text { color:#474747; } .ColorScheme-Highlight { color:#4285f4; }
  </style>
 </defs>
 <path style="fill:currentColor" class="ColorScheme-Text" d="M 4.5,4 C 2.015,4 0,6.015 0,8.5 0,10.985 2.015,13 4.5,13 6.405,12.997 8.101,11.796 8.736,10 H 12 V 12 H 15 V 10 H 16 V 7 H 8.736 C 8.102,5.204 6.405,4.003 4.5,4 Z M 4.5,7 C 5.328,7 6,7.672 6,8.5 6,9.328 5.328,10 4.5,10 3.672,10 3,9.328 3,8.5 3,7.672 3.672,7 4.5,7 Z"/>
</svg>
